client/src/assets/Edit_icon.svg

<svg width="14" height="14" viewBox="0 0 14 14" fill="none" xmlns="http://www.w3.org/2000/svg">
<path d="M11.6221 1.48305C10.9769 0.838983 9.93219 0.838983 9.28705 1.48305L8.70255 2.07081L2.48058 8.29007L2.46735 8.3034C2.46415 8.3066 2.46415 8.31001 2.46074 8.31001C2.45413 8.31993 2.44421 8.32974 2.43771 8.33966C2.43771 8.34297 2.4343 8.34297 2.4343 8.34627C2.42769 8.35619 2.42448 8.3628 2.41777 8.37272C2.41457 8.37603 2.41457 8.37923 2.41126 8.38264C2.40795 8.39256 2.40465 8.39917 2.40124 8.40909C2.40124 8.41229 2.39804 8.41229 2.39804 8.4157L1.01757 12.5673C0.977072 12.6855 1.00786 12.8164 1.0968 12.9041C1.1593 12.9658 1.2436 13.0003 1.33131 13C1.36715 12.9994 1.40269 12.9938 1.43699 12.9835L5.585 11.5996C5.58821 11.5996 5.58821 11.5996 5.59162 11.5964C5.60205 11.5933 5.61207 11.5888 5.62126 11.583C5.62385 11.5827 5.62612 11.5816 5.62798 11.5798C5.63779 11.5732 5.65102 11.5665 5.66093 11.5599C5.67075 11.5534 5.68077 11.5435 5.69069 11.5368C5.69399 11.5334 5.69719 11.5334 5.69719 11.5302C5.7006 11.5269 5.70722 11.5237 5.71052 11.517L12.517 4.70989C13.161 4.06469 13.161 3.01986 12.517 2.37476L11.6221 1.48305ZM5.47932 10.8234L3.18078 8.5247L8.93375 2.77118L11.2323 5.06984L5.47932 10.8234ZM2.85702 9.1357L4.86507 11.1438L1.8498 12.1479L2.85702 9.1357ZM12.0514 4.24745L11.7013 4.60089L9.40265 2.30203L9.75616 1.94869C10.1428 1.56229 10.7696 1.56229 11.1564 1.94869L12.0546 2.84702C12.4384 3.23548 12.4369 3.86085 12.0514 4.24745Z" fill="#C0D1E0" stroke="#C0D1E0" stroke-width="0.5"/>
</svg>

<svg width="14" height="14" fill="none" xmlns="http://www.w3.org/2000/svg"><path d="M11.622 1.483a1.652 1.652 0 00-2.335 0l-.584.588L2.48 8.29l-.014.012c-.003.004-.003.007-.006.007-.007.01-.017.02-.023.03 0 .003-.004.003-.004.006l-.016.027-.007.01-.01.026c0 .003-.003.003-.003.007l-1.38 4.151c-.04.118-.01.25.079.337a.332.332 0 00.34.08L5.585 11.6c.003 0 .003 0 .007-.004a.12.12 0 00.03-.013.011.011 0 00.006-.003l.033-.02c.01-.007.02-.017.03-.023.003-.004.006-.004.006-.007.004-.003.01-.006.014-.013l6.806-6.807a1.653 1.653 0 000-2.335l-.895-.892zm-6.143 9.34L3.181 8.525 8.934 2.77l2.298 2.299-5.753 5.753zM2.857 9.136l2.008 2.008-3.015 1.004 1.007-3.012zm9.194-4.889l-.35.354-2.298-2.299.353-.353a.99.99 0 011.4 0l.899.898a.994.994 0 01-.004 1.4z" fill="#C0D1E0" stroke="#C0D1E0" stroke-width=".5"/></svg>
